X:145
T:On the Road To Kingston Reel
R:reel
C:Bruce Osborne  --  June 12 1998
Z:abc by bosborne@kos.net
M:2/4
L:1/8
K:A
E/D/|C/A,/C/E/ A/c/e/c/|d/A/F/A/ dc/d/|e/f/e/c/ a/e/c/A/|B/c/B/A/ BE/D/|\
C/A,/C/E/ A/c/e/c/|d/A/F/A/ dc/d/|e/f/e/c/ a/e/c/f/|e/c/B/c/ A:|
|:E/D/|C/E/A,/C/ E/A,/C/E/|D/F/A/D/ EA/B/|c/e/A/c/ f/e/c/f/|e/c/A/c/ BE/D/|\
C/E/A,/C/ E/A,/C/E/|D/F/A/D/ EA/B/|c/e/A/c/ f/e/c/A/|B/A/G/B/ A:|
